X:1860
T:Bourrée
C:MCTB 2/47
M:3/8
L:1/16
K:C
e3def|edc4|e3def|gagfed|\
e3def|edc4|e3def|1 g6:|2 g4||
|:c2|def2d2|c2e2c2|Bcd2f2|e2d4|\
def2d2|c2e2c2|BcdedB|1 c4:|2 c6||


